X: 839
T: Alborada Antiga De Ourense
R: reel
M: 4/4
K: Gmajor
GABc|:~d2cB A2G2|G/A/GF2 FGAB|~c2dc B2A2|~d2G2 GABc|
d2cB A2G2|G/A/GF2 FGAB|cdcB A2d2|1 G3d GABc:|2 G4- G4||
~A2AF G2A2|~B2BG A2B2|~c2cA B2c2|d4 G4|
~A2AF G2A2|~B2BG A2B2|~c2cA B2c2|d4- d4||
edcB ABce|d4- d4|edcB ABce|d4- d4|
e2ed f2fd|g4- g3d|e2de f2ef|g4- g3d||
g2fe defg|efed cdef|dedc Bcde|cdcB ABcd|
BcBA GABc|ABAG FGAB|G4- G2d2|G4- G2d2|
G4- G2d2|G2d2 G2d2|G4- G4-|G2d2 GABc||

